images/instagram.svg

<svg width="20" height="20" viewBox="0 0 20 20" fill="none" xmlns="http://www.w3.org/2000/svg">
<path d="M2.92969 20H17.0703C18.6858 20 20 18.6858 20 17.0703V2.92969C20 1.31424 18.6858 0 17.0703 0H2.92969C1.31424 0 0 1.31424 0 2.92969V17.0703C0 18.6858 1.31424 20 2.92969 20ZM1.17188 2.92969C1.17188 1.96045 1.96045 1.17188 2.92969 1.17188H17.0703C18.0396 1.17188 18.8281 1.96045 18.8281 2.92969V17.0703C18.8281 18.0396 18.0396 18.8281 17.0703 18.8281H2.92969C1.96045 18.8281 1.17188 18.0396 1.17188 17.0703V2.92969Z" fill="white"/>
<path d="M10 15.2734C12.9077 15.2734 15.2734 12.9077 15.2734 9.99999C15.2734 7.09228 12.9077 4.72656 10 4.72656C7.09229 4.72656 4.72656 7.09228 4.72656 9.99999C4.72656 12.9077 7.09229 15.2734 10 15.2734ZM10 5.89844C12.2617 5.89844 14.1016 7.73834 14.1016 9.99999C14.1016 12.2616 12.2617 14.1015 10 14.1015C7.73834 14.1015 5.89844 12.2616 5.89844 9.99999C5.89844 7.73834 7.73834 5.89844 10 5.89844Z" fill="white"/>
<path d="M15.5264 5.61385C16.484 5.61385 17.2632 4.83473 17.2632 3.87712C17.2632 2.9195 16.484 2.14038 15.5264 2.14038C14.5687 2.14038 13.7896 2.9195 13.7896 3.87712C13.7896 4.83473 14.5687 5.61385 15.5264 5.61385ZM15.5264 3.2982C15.8455 3.2982 16.1053 3.55796 16.1053 3.87712C16.1053 4.19627 15.8455 4.45603 15.5264 4.45603C15.2072 4.45603 14.9474 4.19627 14.9474 3.87712C14.9474 3.55796 15.2072 3.2982 15.5264 3.2982Z" fill="white"/>
</svg>

<svg width="20" height="20" fill="none" xmlns="http://www.w3.org/2000/svg"><path d="M2.93 20h14.14A2.933 2.933 0 0020 17.07V2.93A2.933 2.933 0 0017.07 0H2.93A2.933 2.933 0 000 2.93v14.14A2.933 2.933 0 002.93 20zM1.172 2.93c0-.97.788-1.758 1.758-1.758h14.14c.97 0 1.758.788 1.758 1.758v14.14a1.76 1.76 0 01-1.758 1.758H2.93a1.76 1.76 0 01-1.758-1.758V2.93z" fill="#fff"/><path d="M10 15.273A5.28 5.28 0 0015.273 10 5.28 5.28 0 0010 4.727 5.28 5.28 0 004.727 10 5.28 5.28 0 0010 15.273zm0-9.375A4.106 4.106 0 0114.102 10 4.106 4.106 0 0110 14.101 4.106 4.106 0 015.898 10 4.106 4.106 0 0110 5.898zM15.526 5.614c.958 0 1.737-.78 1.737-1.737 0-.957-.779-1.737-1.737-1.737-.957 0-1.736.78-1.736 1.737 0 .958.779 1.737 1.736 1.737zm0-2.316a.58.58 0 11-.001 1.16.58.58 0 01.001-1.16z" fill="#fff"/></svg>
